!!!!SEGMENT: pl-wtm--r-275-m--001-001_moniuszko-stanislaw--pienia-zalobne-kyrie.krn
!!!cenid: 18xx:2971
!!!COM: Moniuszko, Stanisław
!!!COM-rismID: pe30008351
!!!CDT: 1819/05/05-1872/06/04
!!!CNT: Polish
!!!OPR: Pienia żałobne
!!!OTL: Kyrie
!!!OMV: 001
!!!PDT: 1869
!!!AGN: Sacred; Mass
!!!YEC: Copyright 2022 Narodowy Instytut Fryderyka Chopina (https://polishscores.org)
!!!YEM: License CC-BY-4.0 (https://creativecommons.org/licenses/by/4.0)
!!!SMS-siglum: PL-Wtm
!!!SMS-shelfmark: R 275/M
!!!SMS-shelfwork: 001-001 M
!!!SMS-variant:
!!!SMS-altvar:
!!!NIFC-rismSourceID: 1001096617
!!!NIFC-rismChildID: 1001096617
!!!NIFC-islandoraID:
!!!URL-pdf-islandora:
!!!URL-scan:
!!!IIIF:
!!!ONB-nifc: UWAGA: tylko partytura kwartetu smyczkowego. Części: 1. Kyrie, 2. Graduale, 3. Offertorium, 4. Sanctus, 5. Agnus
!!!OMD: Largo.
!!!AIN: 1 cello 1 viola 2 violn
!!!key:
**kern	**dynam	**kern	**dynam	**kern	**dynam	**kern	**dynam
*part4	*	*part3	*	*part2	*	*part1	*
*staff4	*	*staff3	*	*staff2	*	*staff1	*
*Icello	*	*Iviola	*	*Ivioln	*	*Ivioln	*
*I"[Violoncelli e Contrabbassi]	*	*I"[Viole]	*	*I"[Violini 2]	*	*I"[Violini 1]	*
*clefF4	*	*clefC3	*	*clefG2	*	*clefG2	*
*k[b-]	*	*k[b-]	*	*k[b-]	*	*k[b-]	*
*d:	*	*d:	*	*d:	*	*d:	*
*M8/8	*	*M8/8	*	*M8/8	*	*M8/8	*
*>[A,B]	*	*>[A,B]	*	*>[A,B]	*	*>[A,B]	*
*>A	*	*>A	*	*>A	*	*>A	*
=1	=1	=1	=1	=1	=1	=1	=1
!LO:TX:t=P:problem=all\right&colon; global	!	!LO:TX:t=P:problem=all\right&colon; global	!	!LO:TX:t=P:problem=all\right&colon; global	!	!LO:TX:t=P:problem=all\right&colon; global	!
1r	.	1r	.	1r	.	1r	.
=2	=2	=2	=2	=2	=2	=2	=2
1r	.	1r	.	1r	.	1r	.
=3	=3	=3	=3	=3	=3	=3	=3
1r	.	1r	.	1r	.	1r	.
=4	=4	=4	=4	=4	=4	=4	=4
1r	.	1r	.	1r	.	1r	.
=5	=5	=5	=5	=5	=5	=5	=5
!	!	!	!LO:DY:rj	!	!LO:DY:rj	!	!LO:DY:rj
1D	p	4F/	p	4A/	p	4d/	p
.	.	8F/L	.	8A/L	.	8d/L	.
.	.	8F/J	.	8A/J	.	8d/J	.
.	.	4A/	.	4d/	.	4f/	.
.	.	4A/	.	4d/	.	4f/	.
=6	=6	=6	=6	=6	=6	=6	=6
*^	*	*	*	*	*	*	*
(4D/	4D\	.	4.A/	.	(<4e/	.	(<4a/	.
4C#X/	4C#\	.	.	.	8A/L)	.	8e/L)	.
.	.	.	8A/	.	8e/J	.	8g/J	.
4D/)	4D\	.	4.A/	.	4.d/	.	(<4g/	.
8r	8ryy	.	.	.	.	.	8f/L)	.
!	!	!LO:DY:rj	!	!LO:DY:rj	!	!LO:DY:rj	!	!LO:DY:rj
8F/	8F\	f	8F/	f	8f/	f	8f/J	f
=7	=7	=7	=7	=7	=7	=7	=7	=7
8.BB-^/L	8.BB-\L	.	4F/	.	4f^</	.	4B-^</ 4b-	.
16D/K	16D\K	.	.	.	.	.	.	.
8F/J	8F\J	.	8F/L	.	8c/L	.	8f/L 8a	.
8F/	8F\	.	8F/J	.	8f/J	.	8f/J	.
4B-^/	4B-\	.	4B-^</	.	4d^</ 4b-	.	4f^>\ 4dd	.
8A/L	8A\L	.	8c/L	.	8f/L	.	8cc\L	.
8G/J	8G\J	.	8d/J	.	8f/J	.	8b-\J	.
=8	=8	=8	=8	=8	=8	=8	=8	=8
4c/	4c\	.	4.c/	.	4f/	.	4a/	.
4C/	4C\	.	.	.	8e/L	.	8g/L	.
.	.	.	8G/	.	8c/J	.	8cc/J	.
4C/	4C\	.	4.c/	.	4e/	.	(>4g/ 4b-	.
8F/	8F\	.	.	.	8f/	.	8a/)	.
8r	8ryy	.	8r	.	8r	.	8r	.
!!LO:LB:g=original
=9	=9	=9	=9	=9	=9	=9	=9	=9
!	!	!LO:DY:rj	!	!LO:DY:rj	!	!LO:DY:rj	!	!LO:DY:rj
4BB-/	4BB-\	p	1B-	p	4d/	p	4b-/	p
8D/L	8D\L	.	.	.	8f/L	.	8f/L	.
8BB-/J	8BB-\J	.	.	.	8d/J	.	8f/J	.
!LO:SIC:v:o=8E/L	!LO:SIC:v:o=8E\L	!	!	!	!	!	!	!
8E-	8E-	.	.	.	4e-X/	.	4g/	.
8GG/J	8GG\J	.	.	.	.	.	.	.
4BB-/	4BB-\	.	.	.	4d/	.	4f/	.
=10	=10	=10	=10	=10	=10	=10	=10	=10
!LO:SIC:v:o=8E/L	!LO:SIC:v:o=8E\L	!	!	!	!	!	!	!
8E-	8E-	<	8B-\L	<	8g/L	<	8g/L	<
8D/	8D\	.	8d\	.	8f#X/	.	8a/	.
8G/	8G\	.	8d\	.	8g/	.	8b-/	.
8F/J	8F\J	[	8f\J	[	8a/J	[	8cc/J	[
*	*	*	*2\left	*	*	*	*	*
(>4B-/	4B-\	>	2f\	>]	(<4b-/	>	(>4dd\	>
4BB-/)	4BB-\	]	.	.	4d/)	]	4b-\)	]
*v	*v	*	*	*	*	*	*	*
=11	=11	=11	=11	=11	=11	=11	=11
!LO:TX:a:t=Vcelli col CB.	!	!	!LO:DY:rj	!	!LO:DY:rj	!	!LO:DY:rj
4B-\	.	8d\L	f	8f/L	f	4d/ 4dd	f
.	.	8e\	.	8g/	.	.	.
8A\L	.	8fn\	.	8a/	.	8d/L 8dd	.
8G#X\J	.	8f\J	.	8b-/J	.	8d/J 8dd	.
*2\right	*	*	*	*	*	*	*
2A\	.	8f\L	.	(<8a/L	.	4a\ 4ff	.
.	.	8d\	.	8d/	.	.	.
.	.	8e\	.	8g/)	.	8ee\L	.
.	.	8A\J 8d	.	8f/J	.	8dd\J	.
=12	=12	=12	=12	=12	=12	=12	=12
(>8A\L	.	4c#X\	.	4e/	.	(<8a/L	>
8G\	.	.	.	.	.	8b-/	.
8F\	.	8A/L	.	8A/L	.	8a/	.
8E\J)	.	8A/J	.	8c#X/J	.	8g/J)	.
2D\	.	4B-X/	sf	(<4c#/ 4e	sf	(<4g/	] sf
.	.	8A/L	.	8d/)	.	8f/L)	.
.	.	8d/J	.	8r	.	8d/J	.
!!LO:LB:g=original
=13	=13	=13	=13	=13	=13	=13	=13
!	!LO:DY:rj	!LO:TX:b:t=b	!LO:DY:rj	!	!LO:DY:rj	!	!LO:DY:rj
2GG/	pp	4B-/	pp	2.d/	pp	4dd\	pp
!	!	!LO:TX:b:t=a	!	!	!	!	!
.	.	8A/L	.	.	.	8cc\L	.
!	!	!LO:TX:b:t=g	!	!	!	!	!
.	.	8G/J	.	.	.	8b-\J	.
!	!	!LO:TX:b:t=f	!	!	!	!	!
2AA/	.	4F/	.	.	.	4a/	.
!	!	!LO:TX:b:t=g	!	!	!	!	!
.	.	8G/L	.	8e/L	.	8g/L	.
!	!	!LO:TX:b:t=gis	!	!	!	!	!
.	.	8G#X/J	.	8d/J	.	8f/J	.
=14	=14	=14	=14	=14	=14	=14	=14
2AA/	.	(<8A/L	<	4.c#X/	.	(<8e/L	.
.	.	8B-/	[	.	.	8g/	.
.	.	8A/	>	.	.	8f/	.
.	.	8G/J)	]	8c#/	.	8e/J)	.
4AA/	.	4G/	.	4c#/	.	4e/	.
8D/	.	8F/	.	8d/	.	8d/	.
8r	.	8r	.	8r	.	8r	.
=15:|!	=15:|!	=15:|!	=15:|!	=15:|!	=15:|!	=15:|!	=15:|!
*^	*	*	*	*	*	*	*
*>B	*>B	*	*>B	*	*>B	*	*>B	*
!	!	!LO:DY:rj	!LO:TX:t=P:2\right:problem	!LO:DY:rj	!	!LO:DY:rj	!LO:TX:a:t=Coda	!LO:DY:rj
2D^>\	2ryy	f	2A^<\ 2f	f	2d^</ 2a	f	2f^</ 2dd	f
2GG^>/ 2D	2GG\	.	2G^</ 2d	.	2g^</ 2b-	.	2d^</ 2dd	.
*v	*v	*	*	*	*	*	*	*
=16	=16	=16	=16	=16	=16	=16	=16
1D;>^<	.	1F;>^<	.	1A;>^<	.	1d;>^<	.
==	==	==	==	==	==	==	==
*-	*-	*-	*-	*-	*-	*-	*-
!!!system-decoration: [(s1,s2,s3,s4)]
!!!RDF**kern: > = above
!!!RDF**kern: < = below
!!!ENC: Katarzyna Serwa
!!!END: 2021-08-16
!!!EED: Jędrzej Mróz
!!!ESR: 2021-09-15
